;FLAVOR:UltiGCode
;TIME:5708
;MATERIAL:6229
;MATERIAL2:0
;NOZZLE_DIAMETER:0.4
;Generated with Cura_SteamEngine 2.3.1

;LAYER_COUNT:218
;LAYER:0
M107
G10
G0 F2880 X86.426 Y95.067 Z.27
;TYPE:SKIRT
G11
G1 F1200 X87.025 Y94.547 E0.07496
G1 X87.674 Y94.091 E0.14992
G1 X88.366 Y93.702 E0.22493
G1 X89.093 Y93.384 E0.29992
G1 X89.849 Y93.141 E0.37496
G1 X90.625 Y92.976 E0.44993
G1 X91.413 Y92.89 E0.52484
G1 X91.876 Y92.876 E0.56861
G1 X131.124 Y92.876 E4.27755
G1 X131.916 Y92.916 E4.35249
G1 X132.701 Y93.035 E4.42752
G1 X133.469 Y93.233 E4.50247
G1 X134.214 Y93.508 E4.57751
G1 X134.927 Y93.855 E4.65245
G1 X135.602 Y94.273 E4.72748
G1 X136.231 Y94.756 E4.80242
G1 X136.808 Y95.301 E4.87742
G1 X137.328 Y95.9 E4.95238
G1 X137.784 Y96.549 E5.02734
G1 X138.173 Y97.241 E5.10236
G1 X138.491 Y97.968 E5.17734
G1 X138.734 Y98.724 E5.25239
G1 X138.899 Y99.5 E5.32736
G1 X138.985 Y100.288 E5.40227
G1 X138.999 Y100.754 E5.44632
G1 X138.991 Y120.862 E7.34653
G1 X138.951 Y121.655 E7.42156
G1 X138.831 Y122.439 E7.49651
G1 X138.633 Y123.207 E7.57146
G1 X138.337 Y124 E7.65145
G1 X138.153 Y124.423 E7.69504
G1 X137.801 Y125.134 E7.77002
G1 X137.378 Y125.806 E7.84505
G1 X136.89 Y126.431 E7.91999
G1 X136.342 Y127.005 E7.99498
G1 X135.738 Y127.52 E8.06999
G1 X134.836 Y128.121 E8.17242
G1 X134.412 Y128.363 E8.21855
G1 X133.704 Y128.722 E8.29357
G1 X132.963 Y129.007 E8.36859
G1 X132.198 Y129.216 E8.44354
G1 X131.415 Y129.347 E8.51856
G1 X130.51 Y129.399 E8.60422
G1 X92.577 Y129.407 E12.18889
G1 X91.784 Y129.367 E12.26392
G1 X90.796 Y129.203 E12.35857
G1 X90.533 Y129.142 E12.38408
G1 X89.77 Y128.924 E12.45907
G1 X89.033 Y128.631 E12.53402
G1 X88.329 Y128.264 E12.60904
G1 X87.518 Y127.719 E12.70138
G1 X87.273 Y127.531 E12.73056
G1 X86.669 Y127.016 E12.80557
G1 X86.119 Y126.444 E12.88056
G1 X85.63 Y125.819 E12.95555
G1 X85.206 Y125.149 E13.03048
G1 X84.852 Y124.439 E13.10545
G1 X84.654 Y123.94 E13.15618
G1 X84.463 Y123.407 E13.20969
G1 X84.233 Y122.647 E13.28473
G1 X84.081 Y121.868 E13.35973
G1 X84.001 Y120.75 E13.46565
G1 X84.001 Y100.751 E15.35556
G1 X84.041 Y99.959 E15.4305
G1 X84.16 Y99.174 E15.50553
G1 X84.358 Y98.406 E15.58048
G1 X84.633 Y97.661 E15.65552
G1 X84.98 Y96.948 E15.73046
G1 X85.398 Y96.273 E15.80548
G1 X85.881 Y95.644 E15.88043
G1 X86.426 Y95.067 E15.95543
G0 F2880 X86.77 Y95.224
G1 F1200 X87.366 Y94.727 E16.02877
G1 X88.01 Y94.295 E16.10205
G1 X88.695 Y93.932 E16.17531
G1 X89.414 Y93.64 E16.24864
G1 X90.159 Y93.425 E16.32192
G1 X90.922 Y93.287 E16.39519
G1 X91.876 Y93.226 E16.48553
G1 X131.124 Y93.226 E20.19447
G1 X131.899 Y93.266 E20.2678
G1 X132.665 Y93.385 E20.34106
G1 X133.415 Y93.583 E20.41436
G1 X134.141 Y93.857 E20.48769
G1 X134.834 Y94.204 E20.56093
G1 X135.488 Y94.621 E20.63423
G1 X136.096 Y95.103 E20.70755
G1 X136.651 Y95.645 E20.78086
G1 X137.148 Y96.241 E20.85419
G1 X137.58 Y96.885 E20.92747
G1 X137.943 Y97.57 E21.00073
G1 X138.235 Y98.289 E21.07407
G1 X138.45 Y99.034 E21.14734
G1 X138.588 Y99.797 E21.22062
G1 X138.649 Y100.754 E21.31124
G1 X138.641 Y120.862 E23.21144
G1 X138.601 Y121.637 E23.28478
G1 X138.481 Y122.403 E23.35805
G1 X138.283 Y123.153 E23.43135
G1 X138.016 Y123.861 E23.50286
G1 X137.832 Y124.284 E23.54645
G1 X137.487 Y124.978 E23.61969
G1 X137.072 Y125.633 E23.69296
G1 X136.591 Y126.242 E23.7663
G1 X136.05 Y126.798 E23.83961
G1 X135.455 Y127.296 E23.91293
G1 X134.662 Y127.817 E24.0026
G1 X134.238 Y128.059 E24.04873
G1 X133.546 Y128.409 E24.12201
G1 X132.821 Y128.685 E24.19532
G1 X132.071 Y128.885 E24.26868
G1 X131.305 Y129.007 E24.34197
G1 X130.51 Y129.049 E24.41721
G1 X92.577 Y129.057 E28.00188
G1 X91.802 Y129.017 E28.07521
G1 X90.875 Y128.862 E28.16403
G1 X90.612 Y128.801 E28.18954
G1 X89.866 Y128.587 E28.26288
G1 X89.147 Y128.298 E28.33611
G1 X88.461 Y127.936 E28.40941
G1 X87.731 Y127.441 E28.49276
G1 X87.486 Y127.253 E28.52194
G1 X86.896 Y126.75 E28.59521
G1 X86.361 Y126.188 E28.66853
G1 X85.886 Y125.575 E28.74182
G1 X85.477 Y124.916 E28.81511
G1 X85.138 Y124.218 E28.88844
G1 X84.983 Y123.822 E28.92863
G1 X84.792 Y123.289 E28.98213
G1 X84.568 Y122.546 E29.05547
G1 X84.422 Y121.784 E29.12879
G1 X84.351 Y120.75 E29.22673
G1 X84.351 Y100.751 E31.11664
G1 X84.391 Y99.976 E31.18997
G1 X84.51 Y99.21 E31.26323
G1 X84.708 Y98.46 E31.33653
G1 X84.982 Y97.734 E31.40986
G1 X85.329 Y97.041 E31.4831
G1 X85.746 Y96.387 E31.5564
G1 X86.228 Y95.779 E31.62972
G1 X86.77 Y95.224 E31.70303
G0 F2880 X87.113 Y95.385
G1 F1200 X87.705 Y94.913 E31.77458
G1 X88.344 Y94.506 E31.84617
G1 X89.022 Y94.168 E31.91776
G1 X89.731 Y93.904 E31.98926
G1 X90.465 Y93.716 E32.06086
G1 X91.214 Y93.607 E32.13238
G1 X91.876 Y93.576 E32.19501
G1 X131.124 Y93.576 E35.90395
G1 X131.88 Y93.616 E35.97549
G1 X132.628 Y93.735 E36.04706
G1 X133.359 Y93.933 E36.11863
G1 X134.066 Y94.207 E36.19029
G1 X134.739 Y94.553 E36.2618
G1 X135.372 Y94.969 E36.33338
G1 X135.958 Y95.449 E36.40496
G1 X136.49 Y95.988 E36.47653
G1 X136.962 Y96.58 E36.54808
G1 X137.369 Y97.219 E36.61967
G1 X137.707 Y97.897 E36.69126
G1 X137.971 Y98.606 E36.76276
G1 X138.159 Y99.34 E36.83436
G1 X138.268 Y100.089 E36.90588
G1 X138.299 Y100.754 E36.9688
G1 X138.291 Y120.862 E38.869
G1 X138.251 Y121.618 E38.94054
G1 X138.131 Y122.366 E39.01213
G1 X137.933 Y123.097 E39.0837
G1 X137.695 Y123.721 E39.14681
G1 X137.511 Y124.144 E39.19041
G1 X137.173 Y124.822 E39.262
G1 X136.765 Y125.46 E39.33356
G1 X136.292 Y126.051 E39.4051
G1 X135.76 Y126.59 E39.47666
G1 X135.173 Y127.069 E39.54826
G1 X134.489 Y127.513 E39.62532
G1 X134.065 Y127.755 E39.67146
G1 X133.388 Y128.096 E39.74309
G1 X132.679 Y128.363 E39.81468
G1 X131.946 Y128.553 E39.88624
G1 X131.197 Y128.666 E39.95782
G1 X130.51 Y128.699 E40.02282
G1 X92.577 Y128.707 E43.60749
G1 X91.82 Y128.667 E43.67912
G1 X90.954 Y128.521 E43.76212
G1 X90.691 Y128.46 E43.78763
G1 X89.963 Y128.251 E43.8592
G1 X89.262 Y127.965 E43.93075
G1 X88.594 Y127.608 E44.00233
G1 X87.944 Y127.163 E44.07677
G1 X87.699 Y126.975 E44.10595
G1 X87.123 Y126.483 E44.17754
G1 X86.603 Y125.933 E44.24906
G1 X86.143 Y125.331 E44.32066
G1 X85.749 Y124.684 E44.39225
G1 X85.313 Y123.703 E44.49369
G1 X85.122 Y123.17 E44.5472
G1 X84.904 Y122.445 E44.61874
G1 X84.764 Y121.701 E44.69028
G1 X84.701 Y120.75 E44.78035
G1 X84.701 Y100.751 E46.67026
G1 X84.741 Y99.995 E46.7418
G1 X84.86 Y99.247 E46.81337
G1 X85.058 Y98.516 E46.88494
G1 X85.332 Y97.809 E46.95659
G1 X85.678 Y97.136 E47.02811
G1 X86.094 Y96.503 E47.09969
G1 X86.574 Y95.917 E47.17127
G1 X87.113 Y95.385 E47.24284
G0 F2880 X87.455 Y95.551
G1 F1200 X88.043 Y95.104 E47.31264
G1 X88.676 Y94.723 E47.38245
G1 X89.346 Y94.412 E47.45226
G1 X90.046 Y94.176 E47.52207
G1 X90.767 Y94.017 E47.59184
G1 X91.502 Y93.936 E47.66171
G1 X91.876 Y93.926 E47.69707
G1 X131.124 Y93.926 E51.40601
G1 X131.862 Y93.966 E51.47585
G1 X132.59 Y94.085 E51.54556
G1 X133.302 Y94.283 E51.6154
G1 X133.988 Y94.556 E51.68517
G1 X134.641 Y94.902 E51.755
G1 X135.253 Y95.316 E51.82483
G1 X135.816 Y95.794 E51.89462
G1 X136.324 Y96.33 E51.96441
G1 X136.771 Y96.918 E52.03421
G1 X137.152 Y97.551 E52.10402
G1 X137.463 Y98.221 E52.17383
G1 X137.699 Y98.921 E52.24364
G1 X137.858 Y99.642 E52.31341
G1 X137.939 Y100.377 E52.38329
G1 X137.949 Y100.754 E52.41893
G1 X137.941 Y120.862 E54.31913
G1 X137.901 Y121.599 E54.38888
G1 X137.781 Y122.328 E54.4587
G1 X137.583 Y123.04 E54.52854
G1 X137.375 Y123.581 E54.58331
G1 X137.191 Y124.004 E54.6269
G1 X136.86 Y124.665 E54.69676
G1 X136.459 Y125.286 E54.76661
G1 X135.994 Y125.859 E54.83635
G1 X135.47 Y126.38 E54.90618
G1 X134.893 Y126.84 E54.97591
G1 X134.315 Y127.209 E55.04071
G1 X133.891 Y127.451 E55.08685
G1 X133.231 Y127.782 E55.15662
G1 X132.538 Y128.04 E55.2265
G1 X131.822 Y128.221 E55.29629
G1 X131.091 Y128.324 E55.36606
G1 X130.509 Y128.349 E55.42111
G1 X92.576 Y128.357 E59.00577
G1 X91.839 Y128.317 E59.07552
G1 X91.033 Y128.181 E59.15277
G1 X90.77 Y128.12 E59.17828
G1 X90.06 Y127.914 E59.24814
G1 X89.377 Y127.633 E59.31793
G1 X88.729 Y127.28 E59.38767
G1 X88.157 Y126.886 E59.4533
G1 X87.912 Y126.698 E59.48249
G1 X87.351 Y126.217 E59.55232
G1 X86.846 Y125.678 E59.62212
G1 X86.401 Y125.088 E59.69195
G1 X86.023 Y124.454 E59.76171
G1 X85.642 Y123.585 E59.85137
G1 X85.451 Y123.052 E59.90488
G1 X85.24 Y122.345 E59.9746
G1 X85.106 Y121.618 E60.04446
G1 X85.051 Y120.75 E60.12665
G1 X85.051 Y100.751 E62.01656
G1 X85.091 Y100.013 E62.0864
G1 X85.21 Y99.285 E62.15611
G1 X85.408 Y98.573 E62.22595
G1 X85.681 Y97.887 E62.29572
G1 X86.027 Y97.234 E62.36555
G1 X86.441 Y96.622 E62.43538
G1 X86.919 Y96.059 E62.50517
G1 X87.455 Y95.551 E62.57496
G0 F2880 X87.797 Y95.722
G1 F1200 X88.38 Y95.301 E62.64292
G1 X89.007 Y94.947 E62.71096
G1 X89.668 Y94.664 E62.77891
G1 X90.357 Y94.457 E62.84689
G1 X91.065 Y94.327 E62.91492
G1 X91.876 Y94.276 E62.99171
G1 X131.124 Y94.276 E66.70064
G1 X131.842 Y94.316 E66.7686
G1 X132.552 Y94.435 E66.83663
G1 X133.244 Y94.633 E66.90465
G1 X133.909 Y94.906 E66.97258
G1 X134.541 Y95.251 E67.04062
G1 X135.13 Y95.664 E67.1086
G1 X135.669 Y96.14 E67.17656
G1 X136.153 Y96.672 E67.24453
G1 X136.574 Y97.255 E67.31248
G1 X136.928 Y97.882 E67.38052
G1 X137.211 Y98.543 E67.44847
G1 X137.418 Y99.232 E67.51646
G1 X137.548 Y99.94 E67.58448
G1 X137.599 Y100.754 E67.66156
G1 X137.591 Y120.862 E69.56176
G1 X137.551 Y121.58 E69.62972
G1 X137.431 Y122.289 E69.69767
G1 X137.233 Y122.981 E69.76569
G1 X137.054 Y123.442 E69.81242
G1 X136.87 Y123.865 E69.85602
G1 X136.546 Y124.508 E69.92406
G1 X136.154 Y125.11 E69.99194
G1 X135.697 Y125.666 E70.05996
G1 X135.181 Y126.168 E70.12799
G1 X134.613 Y126.609 E70.19594
G1 X134.142 Y126.906 E70.24856
G1 X133.718 Y127.148 E70.2947
G1 X133.074 Y127.469 E70.3627
G1 X132.399 Y127.717 E70.43065
G1 X131.7 Y127.888 E70.49866
G1 X130.986 Y127.981 E70.5667
G1 X130.509 Y127.999 E70.61181
G1 X92.576 Y128.007 E74.19648
G1 X91.858 Y127.967 E74.26443
G1 X91.112 Y127.84 E74.33594
G1 X90.849 Y127.779 E74.36146
G1 X90.158 Y127.577 E74.42949
G1 X89.494 Y127.301 E74.49744
G1 X88.865 Y126.952 E74.56542
G1 X88.37 Y126.608 E74.62238
G1 X88.125 Y126.42 E74.65157
G1 X87.58 Y125.951 E74.71951
G1 X87.089 Y125.424 E74.78758
G1 X86.661 Y124.846 E74.85555
G1 X86.299 Y124.225 E74.92347
G1 X85.972 Y123.467 E75.00149
G1 X85.781 Y122.934 E75.05499
G1 X85.576 Y122.245 E75.12292
G1 X85.449 Y121.536 E75.19099
G1 X85.401 Y120.75 E75.26541
G1 X85.401 Y100.751 E77.15531
G1 X85.441 Y100.033 E77.22327
G1 X85.56 Y99.323 E77.2913
G1 X85.758 Y98.631 E77.35932
G1 X86.031 Y97.966 E77.42725
G1 X86.376 Y97.334 E77.49529
G1 X86.789 Y96.745 E77.56327
G1 X87.265 Y96.206 E77.63123
G1 X87.797 Y95.722 E77.69919
G0 F2880 X88.138 Y95.899
G1 F1200 X88.716 Y95.504 E77.76535
G1 X89.335 Y95.178 E77.83146
G1 X89.987 Y94.924 E77.89759
G1 X90.664 Y94.747 E77.96371
G1 X91.357 Y94.648 E78.02987
G1 X91.876 Y94.626 E78.07896
G1 X131.124 Y94.626 E81.78789
G1 X131.823 Y94.666 E81.85406
G1 X132.512 Y94.785 E81.92013
G1 X133.183 Y94.983 E81.98624
G1 X133.828 Y95.255 E82.05239
G1 X134.437 Y95.599 E82.11849
G1 X135.003 Y96.011 E82.18465
G1 X135.518 Y96.484 E82.25073
G1 X135.976 Y97.013 E82.31685
G1 X136.371 Y97.591 E82.38301
G1 X136.697 Y98.21 E82.44912
G1 X136.951 Y98.862 E82.51524
G1 X137.128 Y99.539 E82.58137
G1 X137.227 Y100.232 E82.64752
G1 X137.249 Y100.753 E82.6968
G1 X137.241 Y120.861 E84.59701
G1 X137.201 Y121.56 E84.66317
G1 X137.081 Y122.249 E84.72926
G1 X136.884 Y122.921 E84.79544
G1 X136.733 Y123.302 E84.83417
G1 X136.549 Y123.725 E84.87776
G1 X136.233 Y124.35 E84.94394
G1 X135.849 Y124.934 E85.00999
G1 X135.4 Y125.471 E85.07614
G1 X134.893 Y125.954 E85.14231
G1 X134.335 Y126.375 E85.20837
G1 X133.968 Y126.602 E85.24915
G1 X133.544 Y126.844 E85.29528
G1 X132.918 Y127.155 E85.36134
G1 X132.26 Y127.393 E85.42746
G1 X131.579 Y127.555 E85.49361
G1 X130.884 Y127.637 E85.55974
G1 X130.509 Y127.649 E85.5952
G1 X92.576 Y127.657 E89.17987
G1 X91.878 Y127.617 E89.24594
G1 X91.191 Y127.499 E89.31181
G1 X90.928 Y127.438 E89.33732
G1 X90.257 Y127.241 E89.40341
G1 X89.612 Y126.969 E89.46956
G1 X89.003 Y126.625 E89.53566
G1 X88.583 Y126.33 E89.58416
G1 X88.338 Y126.142 E89.61334
G1 X87.808 Y125.685 E89.67948
G1 X87.334 Y125.171 E89.74555
G1 X86.922 Y124.606 E89.81163
G1 X86.576 Y123.997 E89.87782
G1 X86.301 Y123.349 E89.94434
G1 X86.11 Y122.816 E89.99785
G1 X85.912 Y122.145 E90.06396
G1 X85.792 Y121.456 E90.13005
G1 X85.751 Y120.75 E90.19688
G1 X85.751 Y100.751 E92.08678
G1 X85.791 Y100.052 E92.15295
G1 X85.91 Y99.363 E92.21902
G1 X86.108 Y98.692 E92.28514
G1 X86.38 Y98.047 E92.35129
G1 X86.724 Y97.438 E92.41738
G1 X87.136 Y96.872 E92.48354
G1 X87.609 Y96.357 E92.54962
G1 X88.138 Y95.899 E92.61574
G0 F2880 X88.478 Y96.082
G1 F1200 X89.05 Y95.715 E92.67997
G1 X89.661 Y95.418 E92.74417
G1 X90.303 Y95.194 E92.80842
G1 X90.966 Y95.048 E92.87258
G1 X91.876 Y94.976 E92.95884
G1 X131.124 Y94.976 E96.66778
G1 X131.802 Y95.016 E96.73196
G1 X132.471 Y95.135 E96.79617
G1 X133.121 Y95.332 E96.86036
G1 X133.744 Y95.604 E96.9246
G1 X134.33 Y95.948 E96.98881
G1 X134.872 Y96.358 E97.05303
G1 X135.362 Y96.828 E97.11719
G1 X135.793 Y97.353 E97.18138
G1 X136.16 Y97.925 E97.24561
G1 X136.457 Y98.536 E97.30981
G1 X136.681 Y99.178 E97.37406
G1 X136.827 Y99.841 E97.43822
G1 X136.899 Y100.753 E97.52467
G1 X136.891 Y120.861 E99.42488
G1 X136.851 Y121.54 E99.48915
G1 X136.731 Y122.208 E99.55329
G1 X136.412 Y123.163 E99.64844
G1 X136.228 Y123.586 E99.69203
G1 X135.92 Y124.192 E99.75627
G1 X135.544 Y124.757 E99.8204
G1 X135.104 Y125.275 E99.88463
G1 X134.606 Y125.737 E99.94882
G1 X133.795 Y126.298 E100.04201
G1 X133.371 Y126.54 E100.08815
G1 X132.762 Y126.841 E100.15234
G1 X132.122 Y127.069 E100.21655
G1 X131.459 Y127.22 E100.28081
G1 X130.509 Y127.299 E100.37089
G1 X92.576 Y127.307 E103.95556
G1 X91.898 Y127.267 E104.01974
G1 X91.27 Y127.158 E104.07997
G1 X91.007 Y127.097 E104.10549
G1 X90.356 Y126.904 E104.16965
G1 X89.731 Y126.637 E104.23388
G1 X89.142 Y126.298 E104.2981
G1 X88.796 Y126.053 E104.33817
G1 X88.551 Y125.865 E104.36735
G1 X88.038 Y125.42 E104.43152
G1 X87.58 Y124.918 E104.49574
G1 X87.184 Y124.366 E104.55994
G1 X86.855 Y123.771 E104.62419
G1 X86.631 Y123.231 E104.67944
G1 X86.44 Y122.698 E104.73294
G1 X86.248 Y122.046 E104.79717
G1 X86.135 Y121.376 E104.86138
G1 X86.101 Y120.75 E104.92062
G1 X86.101 Y100.751 E106.81053
G1 X86.141 Y100.073 E106.87471
G1 X86.26 Y99.404 E106.93893
G1 X86.457 Y98.754 E107.00311
G1 X86.729 Y98.131 E107.06735
G1 X87.073 Y97.545 E107.13156
G1 X87.483 Y97.003 E107.19579
G1 X87.953 Y96.513 E107.25995
G1 X88.478 Y96.082 E107.32414
G0 F2880 X88.817 Y96.271
G1 F1200 X89.382 Y95.933 E107.38636
G1 X89.984 Y95.667 E107.44855
G1 X90.614 Y95.475 E107.51079
G1 X91.262 Y95.361 E107.57297
G1 X91.876 Y95.326 E107.63108
G1 X131.124 Y95.326 E111.34002
G1 X131.781 Y95.366 E111.40222
G1 X132.429 Y95.485 E111.46448
G1 X133.057 Y95.682 E111.52668
G1 X133.657 Y95.954 E111.58893
G1 X134.22 Y96.296 E111.65118
G1 X134.737 Y96.704 E111.71342
G1 X135.2 Y97.171 E111.77556
G1 X135.604 Y97.692 E111.83787
G1 X135.942 Y98.257 E111.90008
G1 X136.208 Y98.859 E111.96228
G1 X136.4 Y99.489 E112.02452
G1 X136.514 Y100.137 E112.08669
G1 X136.549 Y100.753 E112.145
G1 X136.541 Y120.861 E114.04521
G1 X136.501 Y121.518 E114.10741
G1 X136.381 Y122.166 E114.16968
G1 X136.091 Y123.023 E114.25518
G1 X135.907 Y123.446 E114.29877
G1 X135.608 Y124.033 E114.36103
G1 X135.24 Y124.579 E114.42325
G1 X134.809 Y125.077 E114.48549
G1 X134.321 Y125.518 E114.54764
G1 X133.621 Y125.994 E114.62764
G1 X133.197 Y126.236 E114.67377
G1 X132.607 Y126.527 E114.73594
G1 X131.985 Y126.744 E114.7982
G1 X131.342 Y126.885 E114.8604
G1 X130.509 Y126.949 E114.93935
G1 X92.576 Y126.957 E118.52402
G1 X91.919 Y126.917 E118.58622
G1 X91.349 Y126.817 E118.64091
G1 X91.086 Y126.756 E118.66642
G1 X90.455 Y126.568 E118.72864
G1 X89.851 Y126.306 E118.79086
G1 X89.284 Y125.972 E118.85305
G1 X89.009 Y125.775 E118.88502
G1 X88.764 Y125.587 E118.9142
G1 X88.267 Y125.155 E118.97643
G1 X87.826 Y124.666 E119.03865
G1 X87.448 Y124.127 E119.10087
G1 X87.137 Y123.547 E119.16306
G1 X86.96 Y123.113 E119.20735
G1 X86.769 Y122.58 E119.26086
G1 X86.585 Y121.948 E119.32306
G1 X86.479 Y121.298 E119.3853
G1 X86.451 Y120.75 E119.43715
